packages/icons/src/emoji/svg/medal.svg

<svg width="120" height="120" viewBox="0 0 120 120" fill="none" xmlns="http://www.w3.org/2000/svg">
<g clip-path="url(#clip0_212_643)">
<path d="M60 116.25C75.533 116.25 88.125 103.658 88.125 88.125C88.125 72.592 75.533 60 60 60C44.467 60 31.875 72.592 31.875 88.125C31.875 103.658 44.467 116.25 60 116.25Z" fill="#FCC21B"/>
<path d="M65.625 56.25V66.5625H54.375V56.25H65.625ZM65.625 50.625H54.375C51.2719 50.625 48.75 53.1469 48.75 56.25V66.5625C48.75 69.6656 51.2719 72.1875 54.375 72.1875H65.625C68.7281 72.1875 71.25 69.6656 71.25 66.5625V56.25C71.25 53.1469 68.7281 50.625 65.625 50.625Z" fill="#FCC21B"/>
<path d="M43.4062 75.2719C44.4375 73.7906 45.6469 72.4406 46.9875 71.25" stroke="white" stroke-width="0.46875" stroke-miterlimit="10" stroke-linecap="round"/>
<path d="M82.5 37.9594C82.5 39.7688 81.4031 42.2437 80.0531 43.4531L66.1969 55.9219C64.8469 57.1313 62.2687 58.125 60.4594 58.125H59.5406C57.7312 58.125 55.1437 57.1313 53.8031 55.9219L39.9469 43.4531C38.5969 42.2437 37.5 39.7688 37.5 37.9594V3.75H82.5V37.9594Z" fill="#006CA2"/>
<path d="M45 48L52.5 54.75V3.75H45V48Z" fill="#40C0E7"/>
<path d="M82.5 37.9594C82.5 39.7688 81.4031 42.2437 80.0531 43.4531L66.1969 55.9219C64.8469 57.1313 62.2687 58.125 60.4594 58.125H59.5406C57.7312 58.125 55.1437 57.1313 53.8031 55.9219L39.9469 43.4531C38.5969 42.2437 37.5 39.7688 37.5 37.9594V3.75H82.5V37.9594Z" fill="#ED6C30"/>
<path fill-rule="evenodd" clip-rule="evenodd" d="M60 109.687C59.4 109.687 58.8844 109.266 58.7625 108.675L54.8438 89.0624L58.7625 69.4499C58.8214 69.1653 58.9767 68.9096 59.2021 68.7261C59.4275 68.5426 59.7093 68.4424 60 68.4424C60.2907 68.4424 60.5725 68.5426 60.7979 68.7261C61.0233 68.9096 61.1786 69.1653 61.2375 69.4499L65.1562 89.0624L61.2375 108.675C61.1156 109.266 60.6 109.687 60 109.687Z" fill="#F79329"/>
<path fill-rule="evenodd" clip-rule="evenodd" d="M39.375 89.0625C39.375 89.6625 39.7969 90.1781 40.3875 90.3L60 94.2188L79.6125 90.3C79.8971 90.2411 80.1528 90.0858 80.3363 89.8604C80.5198 89.635 80.62 89.3532 80.62 89.0625C80.62 88.7718 80.5198 88.49 80.3363 88.2646C80.1528 88.0392 79.8971 87.8839 79.6125 87.825L60 83.9062L40.3875 87.825C39.7969 87.9469 39.375 88.4625 39.375 89.0625Z" fill="#F79329"/>
<mask id="mask0_212_643" style="mask-type:luminance" maskUnits="userSpaceOnUse" x="37" y="3" width="46" height="56">
<path d="M82.5 37.9594C82.5 39.7688 81.4031 42.2437 80.0531 43.4531L66.1969 55.9219C64.8469 57.1313 62.2687 58.125 60.4594 58.125H59.5406C57.7312 58.125 55.1437 57.1313 53.8031 55.9219L39.9469 43.4531C38.5969 42.2437 37.5 39.7688 37.5 37.9594V3.75H82.5V37.9594Z" fill="white"/>
</mask>
<g mask="url(#mask0_212_643)">
<path fill-rule="evenodd" clip-rule="evenodd" d="M32.8125 -1.875H45.9375V55.3125H32.8125V-1.875ZM74.0625 -1.875H87.1875V55.3125H74.0625V-1.875Z" fill="#006CA2"/>
</g>
<mask id="mask1_212_643" style="mask-type:luminance" maskUnits="userSpaceOnUse" x="37" y="3" width="46" height="56">
<path d="M82.5 37.9594C82.5 39.7688 81.4031 42.2437 80.0531 43.4531L66.1969 55.9219C64.8469 57.1313 62.2687 58.125 60.4594 58.125H59.5406C57.7312 58.125 55.1437 57.1313 53.8031 55.9219L39.9469 43.4531C38.5969 42.2437 37.5 39.7688 37.5 37.9594V3.75H82.5V37.9594Z" fill="white"/>
</mask>
<g mask="url(#mask1_212_643)">
<path fill-rule="evenodd" clip-rule="evenodd" d="M45.9371 3.75L45.9277 49.3688L50.0902 53.1188V3.75H45.9371ZM74.0527 3.75L74.0621 49.7719L69.8996 53.5219V3.75H74.0527Z" fill="white"/>
</g>
</g>
<defs>
<clipPath id="clip0_212_643">
<rect width="120" height="120" fill="white"/>
</clipPath>
</defs>
</svg>

<svg xmlns="http://www.w3.org/2000/svg" fill="none" aria-hidden="true" data-slot="icon" viewBox="0 0 120 120"><g clip-path="url(#a)"><path fill="#FCC21B" d="M60 116.25c15.533 0 28.125-12.592 28.125-28.125S75.533 60 60 60 31.875 72.592 31.875 88.125 44.467 116.25 60 116.25"/><path fill="#FCC21B" d="M65.625 56.25v10.313h-11.25V56.25zm0-5.625h-11.25a5.63 5.63 0 0 0-5.625 5.625v10.313a5.63 5.63 0 0 0 5.625 5.624h11.25a5.63 5.63 0 0 0 5.625-5.624V56.25a5.63 5.63 0 0 0-5.625-5.625"/><path stroke="#fff" stroke-linecap="round" stroke-miterlimit="10" stroke-width=".469" d="M43.406 75.272a23 23 0 0 1 3.581-4.022"/><path fill="#006CA2" d="M82.5 37.96c0 1.809-1.097 4.284-2.447 5.493L66.197 55.922c-1.35 1.21-3.928 2.203-5.738 2.203h-.918c-1.81 0-4.397-.994-5.738-2.203L39.947 43.453c-1.35-1.21-2.447-3.684-2.447-5.494V3.75h45z"/><path fill="#40C0E7" d="m45 48 7.5 6.75v-51H45z"/><path fill="#ED6C30" d="M82.5 37.96c0 1.809-1.097 4.284-2.447 5.493L66.197 55.922c-1.35 1.21-3.928 2.203-5.738 2.203h-.918c-1.81 0-4.397-.994-5.738-2.203L39.947 43.453c-1.35-1.21-2.447-3.684-2.447-5.494V3.75h45z"/><path fill="#F79329" fill-rule="evenodd" d="M60 109.687c-.6 0-1.116-.421-1.237-1.012l-3.92-19.613 3.92-19.612a1.264 1.264 0 0 1 2.474 0l3.92 19.612-3.92 19.613A1.26 1.26 0 0 1 60 109.687" clip-rule="evenodd"/><path fill="#F79329" fill-rule="evenodd" d="M39.375 89.063c0 .6.422 1.115 1.013 1.237L60 94.219 79.612 90.3a1.264 1.264 0 0 0 0-2.475L60 83.906l-19.612 3.919a1.264 1.264 0 0 0-1.013 1.237" clip-rule="evenodd"/><mask id="b" width="46" height="56" x="37" y="3" maskUnits="userSpaceOnUse" style="mask-type:luminance"><path fill="#fff" d="M82.5 37.96c0 1.809-1.097 4.284-2.447 5.493L66.197 55.922c-1.35 1.21-3.928 2.203-5.738 2.203h-.918c-1.81 0-4.397-.994-5.738-2.203L39.947 43.453c-1.35-1.21-2.447-3.684-2.447-5.494V3.75h45z"/></mask><g mask="url(#b)"><path fill="#006CA2" fill-rule="evenodd" d="M32.813-1.875h13.124v57.188H32.814zm41.25 0h13.124v57.188H74.064z" clip-rule="evenodd"/></g><mask id="c" width="46" height="56" x="37" y="3" maskUnits="userSpaceOnUse" style="mask-type:luminance"><path fill="#fff" d="M82.5 37.96c0 1.809-1.097 4.284-2.447 5.493L66.197 55.922c-1.35 1.21-3.928 2.203-5.738 2.203h-.918c-1.81 0-4.397-.994-5.738-2.203L39.947 43.453c-1.35-1.21-2.447-3.684-2.447-5.494V3.75h45z"/></mask><g mask="url(#c)"><path fill="#fff" fill-rule="evenodd" d="m45.937 3.75-.01 45.619 4.163 3.75V3.75zm28.116 0 .01 46.022-4.163 3.75V3.75z" clip-rule="evenodd"/></g></g><defs><clipPath id="a"><path fill="#fff" d="M0 0h120v120H0z"/></clipPath></defs></svg>
